app/img/icons/ic--animator.svg

<svg xmlns="http://www.w3.org/2000/svg" preserveAspectRatio="xMidYMid" width="30.152" height="27.25" viewBox="0 0 30.152 27.25"><defs><style>.cls-1{fill:#fff;fill-rule:evenodd}</style></defs><path d="M22.948 8.563a11.7 11.7 0 0 1 1.663 2.994c.204.559.374 1.119.501 1.706a2.9 2.9 0 0 1 1.943-.755c1.699 0 3.09 1.53 3.09 3.395s-1.391 3.403-3.09 3.403c-.738 0-1.409-.288-1.943-.755a11.868 11.868 0 0 1-.501 1.688l-.017.047a11.671 11.671 0 0 1-2.223 3.656c-.951 1.025-2.089 1.874-3.354 2.442a9.429 9.429 0 0 1-3.947.859 9.395 9.395 0 0 1-3.938-.859c-1.273-.568-2.41-1.417-3.361-2.442a11.655 11.655 0 0 1-2.734-5.372 2.915 2.915 0 0 1-1.926.736c-1.689 0-3.107-1.538-3.107-3.403s1.401-3.395 3.107-3.395c.722 0 1.392.28 1.926.737.12-.578.281-1.129.484-1.688l.018-.028a11.542 11.542 0 0 1 1.664-2.966V.786a.91.91 0 0 1 .126-.458C7.559-.026 8-.11 8.331.142l4.057 3.134v-.243c0-.447.17-.877.45-1.165v-.01a1.43 1.43 0 0 1 1.061-.485h2.343c.408 0 .798.186 1.07.485l.042.065c.238.29.391.681.391 1.11v.243L21.81.142a.679.679 0 0 1 1.002.186c.084.15.136.3.136.458v7.777zM6.871 12.126l-.017.047c-1.358 3.581-.594 7.87 1.927 10.649a9.113 9.113 0 0 0 2.886 2.118 8.288 8.288 0 0 0 3.403.736 8.42 8.42 0 0 0 3.413-.736 9.302 9.302 0 0 0 2.885-2.118 10.314 10.314 0 0 0 1.902-3.133l.018-.056a10.654 10.654 0 0 0 0-7.46v-.01c-1.104-2.919-3.286-4.113-5.543-5.866v.242c0 .448-.171.877-.433 1.176l-.018.009-.017.019a1.423 1.423 0 0 1-1.035.456h-2.343c-.407 0-.789-.186-1.061-.484a1.823 1.823 0 0 1-.45-1.176v-.242c-2.241 1.735-4.421 2.929-5.517 5.829zm9.371-9.177h-2.343c-.026 0-.042.009-.051.028-.016.009-.016.038-.016.056v3.506c0 .02 0 .047.016.057.009.018.025.027.051.027h2.343c.017 0 .034-.009.051-.027a.113.113 0 0 0 .017-.057V3.033c0-.018-.009-.028-.009-.047l-.008-.009c-.017-.019-.034-.028-.051-.028zm2.037 1.837l3.226 2.491v-4.98l-3.226 2.489zM8.628 7.277l3.226-2.491-3.226-2.48v4.971zm-4.346 7.339a1.591 1.591 0 0 0-1.171-.523c-.908 0-1.663.802-1.663 1.81 0 .998.755 1.828 1.663 1.828a1.62 1.62 0 0 0 1.146-.486l.025-.037c.628-.708.628-1.902 0-2.592zm21.594 2.592c.314.317.721.523 1.179.523.909 0 1.665-.821 1.665-1.828 0-1.008-.756-1.81-1.665-1.81-.458 0-.865.205-1.179.523-.636.708-.636 1.864 0 2.592zm-8.395-1.063c-.645 0-1.188.578-1.188 1.306 0 .727.543 1.324 1.188 1.324.671 0 1.206-.597 1.206-1.324 0-.728-.535-1.306-1.206-1.306zm-4.83 0c-.653 0-1.196.578-1.196 1.306 0 .727.543 1.324 1.196 1.324.663 0 1.197-.597 1.197-1.324 0-.728-.534-1.306-1.197-1.306zm6.74 4.505c-.577.624-1.239 1.118-1.986 1.445l-.025.019a5.594 5.594 0 0 1-2.31.503 5.384 5.384 0 0 1-2.325-.522 5.82 5.82 0 0 1-1.987-1.445.676.676 0 0 0-1.018 0 .838.838 0 0 0 0 1.11 7.434 7.434 0 0 0 2.445 1.799 7.042 7.042 0 0 0 2.885.625c1.002 0 1.97-.205 2.853-.606l.025-.019a7.549 7.549 0 0 0 2.453-1.799.821.821 0 0 0 0-1.11.667.667 0 0 0-1.01 0z" class="cls-1"/></svg>

<svg xmlns="http://www.w3.org/2000/svg" xmlns:xlink="http://www.w3.org/1999/xlink" preserveAspectRatio="xMidYMid" width="30.152" height="27.25" viewBox="0 0 30.152 27.25">
  <defs>
    <style>
      .cls-1 {
        fill: #fff;
        fill-rule: evenodd;
      }
    </style>
  </defs>
  <path d="M22.948,8.563 C23.626,9.459 24.204,10.457 24.611,11.557 C24.815,12.116 24.985,12.676 25.112,13.263 C25.646,12.788 26.317,12.508 27.055,12.508 C28.754,12.508 30.145,14.038 30.145,15.903 C30.145,17.768 28.754,19.306 27.055,19.306 C26.317,19.306 25.646,19.018 25.112,18.551 C24.985,19.130 24.815,19.707 24.611,20.239 L24.594,20.286 C24.077,21.647 23.313,22.897 22.371,23.942 C21.420,24.967 20.282,25.816 19.017,26.384 C17.795,26.944 16.463,27.243 15.070,27.243 C13.679,27.243 12.354,26.944 11.132,26.384 C9.859,25.816 8.722,24.967 7.771,23.942 C6.447,22.478 5.479,20.631 5.037,18.570 C4.503,19.036 3.833,19.306 3.111,19.306 C1.422,19.306 0.004,17.768 0.004,15.903 C0.004,14.038 1.405,12.508 3.111,12.508 C3.833,12.508 4.503,12.788 5.037,13.245 C5.157,12.667 5.318,12.116 5.521,11.557 L5.539,11.529 C5.954,10.438 6.523,9.440 7.203,8.563 L7.203,0.786 C7.203,0.628 7.244,0.478 7.329,0.328 C7.559,-0.026 8.000,-0.110 8.331,0.142 L12.388,3.276 L12.388,3.033 C12.388,2.586 12.558,2.156 12.838,1.868 L12.838,1.858 C13.110,1.559 13.483,1.373 13.899,1.373 L16.242,1.373 C16.650,1.373 17.040,1.559 17.312,1.858 L17.354,1.923 C17.592,2.213 17.745,2.604 17.745,3.033 L17.745,3.276 L21.810,0.142 C22.132,-0.110 22.591,-0.026 22.812,0.328 C22.896,0.478 22.948,0.628 22.948,0.786 L22.948,8.563 L22.948,8.563 ZM6.871,12.126 L6.871,12.126 L6.854,12.173 C5.496,15.754 6.260,20.043 8.781,22.822 C9.604,23.717 10.589,24.445 11.667,24.940 C12.703,25.406 13.857,25.676 15.070,25.676 C16.276,25.676 17.430,25.406 18.483,24.940 C19.553,24.445 20.536,23.717 21.368,22.822 C22.166,21.927 22.820,20.854 23.270,19.689 L23.288,19.633 C24.187,17.265 24.187,14.541 23.288,12.173 L23.288,12.163 C22.184,9.244 20.002,8.050 17.745,6.297 L17.745,6.539 C17.745,6.987 17.574,7.416 17.312,7.715 L17.294,7.724 L17.277,7.743 C17.006,8.032 16.632,8.199 16.242,8.199 L13.899,8.199 C13.492,8.199 13.110,8.013 12.838,7.715 C12.575,7.416 12.388,6.987 12.388,6.539 L12.388,6.297 C10.147,8.032 7.967,9.226 6.871,12.126 L6.871,12.126 ZM16.242,2.949 L16.242,2.949 L13.899,2.949 C13.873,2.949 13.857,2.958 13.848,2.977 C13.832,2.986 13.832,3.015 13.832,3.033 L13.832,6.539 C13.832,6.559 13.832,6.586 13.848,6.596 C13.857,6.614 13.873,6.623 13.899,6.623 L16.242,6.623 C16.259,6.623 16.276,6.614 16.293,6.596 C16.301,6.586 16.310,6.559 16.310,6.539 L16.310,3.033 C16.310,3.015 16.301,3.005 16.301,2.986 L16.293,2.977 C16.276,2.958 16.259,2.949 16.242,2.949 L16.242,2.949 ZM18.279,4.786 L18.279,4.786 L21.505,7.277 L21.505,2.297 L18.279,4.786 L18.279,4.786 ZM8.628,7.277 L8.628,7.277 L11.854,4.786 L8.628,2.306 L8.628,7.277 L8.628,7.277 ZM4.282,14.616 L4.282,14.616 C3.985,14.298 3.578,14.093 3.111,14.093 C2.203,14.093 1.448,14.895 1.448,15.903 C1.448,16.901 2.203,17.731 3.111,17.731 C3.552,17.731 3.960,17.544 4.257,17.245 L4.282,17.208 C4.910,16.500 4.910,15.306 4.282,14.616 L4.282,14.616 ZM25.876,17.208 L25.876,17.208 C26.190,17.525 26.597,17.731 27.055,17.731 C27.964,17.731 28.720,16.910 28.720,15.903 C28.720,14.895 27.964,14.093 27.055,14.093 C26.597,14.093 26.190,14.298 25.876,14.616 C25.240,15.324 25.240,16.480 25.876,17.208 L25.876,17.208 ZM17.481,16.145 L17.481,16.145 C16.836,16.145 16.293,16.723 16.293,17.451 C16.293,18.178 16.836,18.775 17.481,18.775 C18.152,18.775 18.687,18.178 18.687,17.451 C18.687,16.723 18.152,16.145 17.481,16.145 L17.481,16.145 ZM12.651,16.145 L12.651,16.145 C11.998,16.145 11.455,16.723 11.455,17.451 C11.455,18.178 11.998,18.775 12.651,18.775 C13.314,18.775 13.848,18.178 13.848,17.451 C13.848,16.723 13.314,16.145 12.651,16.145 L12.651,16.145 ZM19.391,20.650 L19.391,20.650 C18.814,21.274 18.152,21.768 17.405,22.095 L17.380,22.114 C16.683,22.431 15.894,22.617 15.070,22.617 C14.238,22.617 13.449,22.431 12.745,22.095 C11.998,21.768 11.319,21.274 10.758,20.650 C10.478,20.342 10.020,20.342 9.740,20.650 C9.460,20.957 9.460,21.460 9.740,21.760 C10.428,22.524 11.260,23.139 12.185,23.559 C13.076,23.960 14.060,24.184 15.070,24.184 C16.072,24.184 17.040,23.979 17.923,23.578 L17.948,23.559 C18.873,23.139 19.705,22.524 20.401,21.760 C20.689,21.460 20.689,20.957 20.401,20.650 C20.130,20.342 19.671,20.342 19.391,20.650 L19.391,20.650 Z" class="cls-1"/>
</svg>
